themes/authentic-theme/images/not_found.svg

<?xml version="1.0" encoding="UTF-8" standalone="no"?>
<svg
   xmlns:dc="http://purl.org/dc/elements/1.1/"
   xmlns:cc="http://creativecommons.org/ns#"
   xmlns:rdf="http://www.w3.org/1999/02/22-rdf-syntax-ns#"
   xmlns:svg="http://www.w3.org/2000/svg"
   xmlns="http://www.w3.org/2000/svg"
   xmlns:xlink="http://www.w3.org/1999/xlink"
   version="1.1"
   width="48px"
   id="svg11300"
   height="48px">
  <metadata
     id="metadata43">
    <rdf:RDF>
      <cc:Work
         rdf:about="">
        <dc:format>image/svg+xml</dc:format>
        <dc:type
           rdf:resource="http://purl.org/dc/dcmitype/StillImage" />
        <dc:title></dc:title>
      </cc:Work>
    </rdf:RDF>
  </metadata>
  <defs
     id="defs3">
    <radialGradient
       xlink:href="#linearGradient5060"
       r="117.14286"
       id="radialGradient6719"
       gradientUnits="userSpaceOnUse"
       gradientTransform="matrix(-2.774389,0,0,1.969706,112.7623,-872.8854)"
       fy="486.64789"
       fx="605.71429"
       cy="486.64789"
       cx="605.71429" />
    <linearGradient
       id="linearGradient5060">
      <stop
         style="stop-color:black;stop-opacity:1;"
         offset="0"
         id="stop5062" />
      <stop
         style="stop-color:black;stop-opacity:0;"
         offset="1"
         id="stop5064" />
    </linearGradient>
    <radialGradient
       xlink:href="#linearGradient5060"
       r="117.14286"
       id="radialGradient6717"
       gradientUnits="userSpaceOnUse"
       gradientTransform="matrix(2.774389,0,0,1.969706,-1891.633,-872.8854)"
       fy="486.64789"
       fx="605.71429"
       cy="486.64789"
       cx="605.71429" />
    <linearGradient
       id="linearGradient5048">
      <stop
         style="stop-color:black;stop-opacity:0;"
         offset="0"
         id="stop5050" />
      <stop
         style="stop-color:black;stop-opacity:1;"
         offset="0.5"
         id="stop5056" />
      <stop
         style="stop-color:black;stop-opacity:0;"
         offset="1"
         id="stop5052" />
    </linearGradient>
    <linearGradient
       y2="609.50507"
       y1="366.64789"
       xlink:href="#linearGradient5048"
       x2="302.85715"
       x1="302.85715"
       id="linearGradient6715"
       gradientUnits="userSpaceOnUse"
       gradientTransform="matrix(2.774389,0,0,1.969706,-1892.179,-872.8854)" />
    <linearGradient
       id="linearGradient3563">
      <stop
         style="stop-color:#ffffff;stop-opacity:1;"
         offset="0"
         id="stop3565" />
      <stop
         style="stop-color:#939393;stop-opacity:1;"
         offset="1"
         id="stop3567" />
    </linearGradient>
    <linearGradient
       id="linearGradient3555">
      <stop
         style="stop-color:#f2f2f2;stop-opacity:1;"
         offset="0"
         id="stop3557" />
      <stop
         style="stop-color:#d0d0d0;stop-opacity:1;"
         offset="1"
         id="stop3559" />
    </linearGradient>
    <linearGradient
       y2="36.0328"
       y1="3.7319"
       x2="31.0813"
       x1="12.4873"
       style="stroke-dasharray:none;stroke-miterlimit:4.0000000;stroke-width:1.2166667"
       id="aigrd1"
       gradientUnits="userSpaceOnUse">
      <stop
         style="stop-color:#D2D2D2;stroke-dasharray:none;stroke-miterlimit:4.0000000;stroke-width:1.2166667"
         offset="0"
         id="stop16177" />
      <stop
         style="stop-color:#EDEDED;stroke-dasharray:none;stroke-miterlimit:4.0000000;stroke-width:1.2166667"
         offset="1"
         id="stop16179" />
    </linearGradient>
    <linearGradient
       y2="36.0328"
       y1="3.7319"
       xlink:href="#aigrd1"
       x2="31.0813"
       x1="12.4873"
       id="linearGradient16280"
       gradientUnits="userSpaceOnUse"
       gradientTransform="matrix(1.211383,0,0,1.211383,-2.021433,0.189894)" />
    <linearGradient
       id="linearGradient12129">
      <stop
         style="stop-color:#000000;stop-opacity:1;"
         offset="0"
         id="stop12131" />
      <stop
         style="stop-color:#000000;stop-opacity:0;"
         offset="1"
         id="stop12133" />
    </linearGradient>
    <radialGradient
       xlink:href="#linearGradient12129"
       r="22.097088"
       id="radialGradient12135"
       gradientUnits="userSpaceOnUse"
       gradientTransform="matrix(1.000000,0.000000,0.000000,0.184000,0.000000,33.97501)"
       fy="41.636040"
       fx="24.218407"
       cy="41.636040"
       cx="24.218407" />
    <radialGradient
       xlink:href="#linearGradient3555"
       r="17.926361"
       id="radialGradient3561"
       gradientUnits="userSpaceOnUse"
       gradientTransform="matrix(1.848501,-1.547102e-23,1.227926e-24,1.289078,-21.29931,-13.68176)"
       fy="38.34853"
       fx="26.728037"
       cy="38.34853"
       cx="26.728037" />
    <linearGradient
       y2="9.8661737"
       y1="34.868584"
       xlink:href="#linearGradient3563"
       x2="22.169001"
       x1="28.107494"
       id="linearGradient3569"
       gradientUnits="userSpaceOnUse"
       gradientTransform="translate(-1.056826e-16,0.883885)" />
  </defs>
  <g
     id="layer1">
    <g
       transform="matrix(2.367169e-2,0,0,2.086758e-2,45.08634,40.14468)"
       style="display:inline"
       id="g6707">
      <rect
         y="-150.69685"
         x="-1559.2523"
         width="1339.6335"
         style="opacity:0.40206185;color:black;fill:url(#linearGradient6715);fill-opacity:1;fill-rule:nonzero;stroke:none;stroke-width:1;stroke-linecap:round;stroke-linejoin:miter;marker:none;marker-start:none;marker-mid:none;marker-end:none;stroke-miterlimit:4;stroke-dasharray:none;stroke-dashoffset:0;stroke-opacity:1;visibility:visible;display:inline;overflow:visible"
         id="rect6709"
         height="478.35718" />
      <path
         style="opacity:0.40206185;color:black;fill:url(#radialGradient6717);fill-opacity:1;fill-rule:nonzero;stroke:none;stroke-width:1;stroke-linecap:round;stroke-linejoin:miter;marker:none;marker-start:none;marker-mid:none;marker-end:none;stroke-miterlimit:4;stroke-dasharray:none;stroke-dashoffset:0;stroke-opacity:1;visibility:visible;display:inline;overflow:visible"
         id="path6711"
         d="M -219.61876,-150.68038 C -219.61876,-150.68038 -219.61876,327.65041 -219.61876,327.65041 C -76.744594,328.55086 125.78146,220.48075 125.78138,88.454235 C 125.78138,-43.572302 -33.655436,-150.68036 -219.61876,-150.68038 z " />
      <path
         style="opacity:0.40206185;color:black;fill:url(#radialGradient6719);fill-opacity:1;fill-rule:nonzero;stroke:none;stroke-width:1;stroke-linecap:round;stroke-linejoin:miter;marker:none;marker-start:none;marker-mid:none;marker-end:none;stroke-miterlimit:4;stroke-dasharray:none;stroke-dashoffset:0;stroke-opacity:1;visibility:visible;display:inline;overflow:visible"
         id="path6713"
         d="M -1559.2523,-150.68038 C -1559.2523,-150.68038 -1559.2523,327.65041 -1559.2523,327.65041 C -1702.1265,328.55086 -1904.6525,220.48075 -1904.6525,88.454235 C -1904.6525,-43.572302 -1745.2157,-150.68036 -1559.2523,-150.68038 z " />
    </g>
    <path
       transform="matrix(1.011299,0,0,1.004137,-0.356015,-9.658587e-2)"
       style="fill:url(#linearGradient16280);fill-rule:nonzero;stroke:#646464;stroke-width:0.99234736;stroke-miterlimit:4;stroke-dasharray:none;stroke-opacity:1"
       id="path16181"
       d="M 45.343675,39.903974 C 45.343675,41.842189 43.768877,43.416987 41.830663,43.416987 L 6.3371177,43.416987 C 4.3989037,43.416987 2.8241047,41.842189 2.8241047,39.903974 L 2.8241047,7.0947821 C 2.8241047,5.1565681 4.3989037,3.581769 6.3371177,3.581769 L 41.830663,3.581769 C 43.768877,3.581769 45.343675,5.1565681 45.343675,7.0947821 L 45.343675,39.903974 L 45.343675,39.903974 z " />
    <path
       transform="matrix(1.004226,0,0,0.9999,-0.143226,0.251056)"
       style="fill:url(#radialGradient3561);fill-opacity:1;fill-rule:nonzero;stroke:url(#linearGradient3569);stroke-width:0.99794304;stroke-miterlimit:4;stroke-dasharray:none;stroke-opacity:0.61658032"
       id="path12125"
       d="M 41.467991,35.25247 L 6.6152692,35.25247 L 6.6152692,11.250058 L 41.467991,11.250058 L 41.467991,35.25247 L 41.467991,35.25247 z " />
    <path
       transform="matrix(1.005089,0,0,1.001536,-0.206445,8.971654e-2)"
       style="fill:none;fill-rule:nonzero;stroke:#ffffff;stroke-width:0.99670035;stroke-miterlimit:4;stroke-dasharray:none;stroke-opacity:0.86010359"
       id="path11975"
       d="M 44.480104,39.32848 C 44.480104,41.187964 43.499604,42.345241 41.640121,42.345241 L 6.6160507,42.345241 C 4.7565677,42.345241 3.6876787,41.276353 3.6876787,39.416869 L 3.6876787,7.5970548 C 3.6876787,5.737571 5.1985087,4.403517 7.0579927,4.403517 L 41.198179,4.403517 C 43.057662,4.403517 44.480104,5.737571 44.480104,7.5970548 L 44.480104,38.974927 L 44.480104,39.32848 z " />
    <g
       transform="matrix(0.751031,0,0,0.764054,10.06196,10.18347)"
       id="g3551">
      <path
         style="opacity:1;color:#000000;fill:#cc0000;fill-opacity:1;fill-rule:nonzero;stroke:#cc0000;stroke-width:2.64021659;stroke-linecap:round;stroke-linejoin:round;marker:none;marker-start:none;marker-mid:none;marker-end:none;stroke-miterlimit:4;stroke-dasharray:none;stroke-dashoffset:0;stroke-opacity:1;visibility:visible;display:inline;overflow:visible"
         id="path2565"
         d="M 11.318692,9.2240568 C 16.641997,14.693047 22.769247,19.123651 29.210664,22.931105 L 27.441568,24.159843 C 21.101863,20.04489 15.052508,15.498993 9.1840818,10.652117 L 11.318692,9.2240568 z " />
      <path
         style="opacity:1;color:#000000;fill:#cc0000;fill-opacity:1;fill-rule:nonzero;stroke:#cc0000;stroke-width:2.64021564;stroke-linecap:round;stroke-linejoin:round;marker:none;marker-start:none;marker-mid:none;marker-end:none;stroke-miterlimit:4;stroke-dasharray:none;stroke-dashoffset:0;stroke-opacity:1;visibility:visible;display:inline;overflow:visible"
         id="path2575"
         d="M 26.73892,8.9210568 C 21.867631,15.95255 15.247359,21.081199 7.9065151,25.28163 L 10.087564,23.520856 C 8.7241111,24.379297 25.574485,11.804168 23.852075,10.207903 L 26.73892,8.9210568 z " />
    </g>
  </g>
  <text
     transform="scale(1.1202054,0.89269343)"
     id="text4171"
     y="45.219372"
     x="6.0959616"
     style="font-style:normal;font-weight:normal;font-size:5.04519606px;line-height:125%;font-family:sans-serif;letter-spacing:0px;word-spacing:0px;fill:#000000;fill-opacity:1;stroke:none;stroke-width:1px;stroke-linecap:butt;stroke-linejoin:miter;stroke-opacity:1"
     xml:space="preserve"><tspan
       y="45.219372"
       x="6.0959616"
       id="tspan4173">NOT FOUND</tspan></text>
  <text
     transform="scale(1.628049,0.61423215)"
     id="text4175"
     y="15.069235"
     x="4.4219627"
     style="font-style:normal;font-weight:normal;font-size:6.45682907px;line-height:125%;font-family:sans-serif;letter-spacing:0px;word-spacing:0px;fill:#000000;fill-opacity:1;stroke:none;stroke-width:1px;stroke-linecap:butt;stroke-linejoin:miter;stroke-opacity:1"
     xml:space="preserve"><tspan
       y="15.069235"
       x="4.4219627"
       id="tspan4177">IMAGE</tspan></text>
</svg>

<svg xmlns="http://www.w3.org/2000/svg" xmlns:xlink="http://www.w3.org/1999/xlink" width="48" height="48"><defs><linearGradient id="e"><stop offset="0"/><stop offset="1" stop-opacity="0"/></linearGradient><linearGradient id="a"><stop offset="0" stop-opacity="0"/><stop offset=".5"/><stop offset="1" stop-opacity="0"/></linearGradient><linearGradient xlink:href="#a" id="h" x1="302.857" x2="302.857" y1="366.648" y2="609.505" gradientTransform="matrix(2.77439 0 0 1.9697 -1892.179 -872.885)" gradientUnits="userSpaceOnUse"/><linearGradient id="d"><stop offset="0" stop-color="#fff"/><stop offset="1" stop-color="#939393"/></linearGradient><linearGradient id="f"><stop offset="0" stop-color="#f2f2f2"/><stop offset="1" stop-color="#d0d0d0"/></linearGradient><linearGradient id="b" x1="12.487" x2="31.081" y1="3.732" y2="36.033" stroke-dasharray="none" stroke-miterlimit="4" stroke-width="1.217" gradientUnits="userSpaceOnUse"><stop offset="0" stop-color="#d2d2d2"/><stop offset="1" stop-color="#ededed"/></linearGradient><linearGradient xlink:href="#b" id="k" x1="12.487" x2="31.081" y1="3.732" y2="36.033" gradientTransform="translate(-2.021 .19)scale(1.21138)" gradientUnits="userSpaceOnUse"/><linearGradient xlink:href="#d" id="m" x1="28.107" x2="22.169" y1="34.869" y2="9.866" gradientTransform="translate(0 .884)" gradientUnits="userSpaceOnUse"/><radialGradient xlink:href="#e" id="j" cx="605.714" cy="486.648" r="117.143" fx="605.714" fy="486.648" gradientTransform="matrix(-2.77439 0 0 1.9697 112.762 -872.885)" gradientUnits="userSpaceOnUse"/><radialGradient xlink:href="#e" id="i" cx="605.714" cy="486.648" r="117.143" fx="605.714" fy="486.648" gradientTransform="matrix(2.77439 0 0 1.9697 -1891.633 -872.885)" gradientUnits="userSpaceOnUse"/><radialGradient xlink:href="#f" id="l" cx="26.728" cy="38.349" r="17.926" fx="26.728" fy="38.349" gradientTransform="matrix(1.8485 0 0 1.28908 -21.3 -13.682)" gradientUnits="userSpaceOnUse"/></defs><g color="#000"><path fill="url(#h)" d="M-1559.252-150.697h1339.633V327.66h-1339.633z" opacity=".402" overflow="visible" style="marker:none" transform="matrix(.02367 0 0 .02087 45.086 40.145)"/><path fill="url(#i)" d="M-219.619-150.68v478.33c142.874.9 345.4-107.17 345.4-239.196S-33.655-150.68-219.619-150.68" opacity=".402" overflow="visible" style="marker:none" transform="matrix(.02367 0 0 .02087 45.086 40.145)"/><path fill="url(#j)" d="M-1559.252-150.68v478.33c-142.875.9-345.4-107.17-345.4-239.196s159.436-239.134 345.4-239.134" opacity=".402" overflow="visible" style="marker:none" transform="matrix(.02367 0 0 .02087 45.086 40.145)"/></g><path fill="url(#k)" stroke="#646464" stroke-width=".992" d="M45.344 39.904a3.516 3.516 0 0 1-3.513 3.513H6.337a3.516 3.516 0 0 1-3.513-3.513V7.094a3.516 3.516 0 0 1 3.513-3.512h35.494a3.516 3.516 0 0 1 3.513 3.513z" transform="matrix(1.0113 0 0 1.00414 -.356 -.097)"/><path fill="url(#l)" stroke="url(#m)" stroke-opacity=".617" stroke-width=".998" d="M41.468 35.252H6.615V11.25h34.853z" transform="matrix(1.00423 0 0 .9999 -.143 .251)"/><path fill="none" stroke="#fff" stroke-opacity=".86" stroke-width=".997" d="M44.48 39.328c0 1.86-.98 3.017-2.84 3.017H6.616c-1.86 0-2.928-1.069-2.928-2.928V7.597c0-1.86 1.51-3.193 3.37-3.193h34.14c1.86 0 3.282 1.334 3.282 3.193z" transform="matrix(1.00509 0 0 1.00154 -.206 .09)"/><g fill="#c00" stroke="#c00" stroke-linecap="round" stroke-linejoin="round" stroke-width="2.64" color="#000"><path d="M11.319 9.224c5.323 5.469 11.45 9.9 17.892 13.707l-1.77 1.229c-6.34-4.115-12.388-8.661-18.257-13.508z" overflow="visible" style="marker:none" transform="matrix(.75103 0 0 .76405 10.062 10.183)"/><path d="M26.739 8.921c-4.871 7.032-11.492 12.16-18.832 16.36l2.18-1.76c-1.363.858 15.487-11.717 13.765-13.313z" overflow="visible" style="marker:none" transform="matrix(.75103 0 0 .76405 10.062 10.183)"/></g><text xml:space="preserve" x="6.096" y="45.219" font-family="sans-serif" font-size="5.045" font-weight="400" letter-spacing="0" style="line-height:125%" transform="scale(1.1202 .8927)" word-spacing="0"><tspan x="6.096" y="45.219">NOT FOUND</tspan></text><text xml:space="preserve" x="4.422" y="15.069" font-family="sans-serif" font-size="6.457" font-weight="400" letter-spacing="0" style="line-height:125%" transform="scale(1.62805 .61423)" word-spacing="0"><tspan x="4.422" y="15.069">IMAGE</tspan></text></svg>
